assets/sonr-icons/layers.svg

<svg xmlns="http://www.w3.org/2000/svg" width="24" height="24" fill="none" viewBox="0 0 24 24"><path fill="#000" d="M3.106 16.553C3.353 16.059 3.953 15.858 4.448 16.106L12.001 19.882L19.554 16.106C20.048 15.859 20.649 16.059 20.896 16.553C21.143 17.047 20.943 17.647 20.449 17.895L12.449 21.895C12.168 22.036 11.836 22.036 11.554 21.895L3.554 17.895C3.06 17.648 2.86 17.048 3.108 16.553H3.106Z"/><path fill="#000" d="M3.106 11.553C3.353 11.059 3.953 10.858 4.448 11.106L12.001 14.882L19.554 11.106C20.048 10.859 20.649 11.06 20.896 11.553C21.143 12.046 20.943 12.647 20.449 12.895L12.449 16.895C12.168 17.036 11.836 17.036 11.554 16.895L3.554 12.895C3.06 12.648 2.86 12.048 3.108 11.553H3.106Z"/><path fill="#000" d="M11.553 2.10502C11.834 1.96402 12.166 1.96402 12.448 2.10502L20.448 6.10502C20.787 6.27502 21.001 6.62102 21.001 7.00002C21.001 7.37902 20.787 7.72502 20.448 7.89502L12.448 11.895C12.167 12.036 11.835 12.036 11.553 11.895L3.553 7.89502C3.214 7.72502 3 7.37902 3 7.00002C3 6.62102 3.214 6.27502 3.553 6.10502L11.553 2.10502ZM6.236 7.00002L12 9.88202L17.764 7.00002L12 4.11802L6.236 7.00002Z"/></svg>

<svg xmlns="http://www.w3.org/2000/svg" width="24" height="24" fill="none"><path fill="currentColor" d="M3.106 16.553a1 1 0 0 1 1.342-.447l7.553 3.776 7.553-3.776a1 1 0 0 1 .895 1.789l-8 4a1 1 0 0 1-.895 0l-8-4a1 1 0 0 1-.446-1.342z"/><path fill="currentColor" d="M3.106 11.553a1 1 0 0 1 1.342-.447l7.553 3.776 7.553-3.776a1.001 1.001 0 0 1 .895 1.789l-8 4a1 1 0 0 1-.895 0l-8-4a1 1 0 0 1-.446-1.342z"/><path fill="currentColor" d="M11.553 2.105a1 1 0 0 1 .895 0l8 4a1.001 1.001 0 0 1 0 1.79l-8 4a1 1 0 0 1-.895 0l-8-4a1.001 1.001 0 0 1 0-1.79zM6.236 7 12 9.882 17.764 7 12 4.118z"/></svg>
